X:1
T:Title
%%score { ( 1 4 ) | ( 2 3 ) }
L:1/8
M:6/8
K:Ab
V:1 treble nm="Grand Piano"
V:4 treble 
V:2 bass 
V:3 bass 
V:1
 z3 z2[Q:1/4=84] [CE] | [Ec]>[Fd][Ec] B>AF | [CE]>[_C=D][CF] .[E,=CE]2 [Ec] | e>dc B>[EA][EB] | %4
 [Ec]3- [Ec]2 [CE]/[CE]/ | [Ec]>[Fd][Ec] BAF | %6
 [CE]>[_C=D][CF][K:bass] .[E,=CE]2 [A,CE]/[K:treble]E/ | F>GA B>Bc |[M:5/8] [CA]-[CA]- [CA]3 | %9
[M:1/8] [Ec] |[M:3/4] e>B =A B2 _c | [Ec]6[K:bass][K:treble] | z2 z A z2 | B6 | %14
 [Ee]>[Ed] [Ec]c- c/d/c |[M:7/8] [FB]>[FA][DF] [FA]3 [FB] | %16
[M:3/4] ce- e/d/ c2 B[Q:1/4=82][Q:1/4=79][Q:1/4=77][Q:1/4=75][Q:1/4=72][Q:1/4=70][Q:1/4=68][Q:1/4=65] | %17
[M:5/8] [CA]-[CA]- [CA]3 |] %18
V:2
 z3 z2 [A,,A,] | [A,,A,]>[A,,A,][A,,A,] [D,F,D]>[D,F,D][D,A,D] | %2
 [A,,A,]>[A,,F,][A,,=D,] z A,[A,,A,] | [E,G,E]>[E,B,E][E,A,E] [E,G,E]>[C,A,][B,,G,] | %4
 [A,,A,]3- [A,,A,]2 [A,,A,] | [A,,A,]>[A,,A,][A,,A,] [D,F,D]2 [D,A,D] | %6
 [A,,A,]>[A,,F,][A,,=D,] z A,A,,/[C,A,]/ | [D,A,D]>[D,G,D][D,F,D] [E,G,D]>[E,G,D][E,G,E] | %8
[M:5/8] [A,,E,A,]-[A,,E,A,]- [A,,E,A,]3 |[M:1/8] [A,,A,] | %10
[M:3/4] [E,G,E]>[E,G,E] [E,_G,E] [E,=G,E]2 [E,G,E] | .A,2 z2 z [A,,A,] | %12
 [B,,F,]>[B,,A,] [B,,G,]F, G,[B,,A,] | [G,D]B, A, .G,3 | %14
 [A,,A,]>[B,,G,] [C,A,][_G,A,E]- [G,A,E]/[F,A,D]/[E,A,E] |[M:7/8] [D,A,]>[D,D][D,A,] [D,D]3 [D,D] | %16
[M:3/4] [E,A,E][E,CE]- [E,CE]/[E,B,E]/ [E,A,E]2 [E,G,D] |[M:5/8] [A,,E,A,]-[A,,E,A,]- [A,,E,A,]3 |] %18
V:3
 x6 | x6 | z3 .A,,3 | x6 | x6 | x6 | z3 .A,,3 | x6 |[M:5/8] x5 |[M:1/8] x |[M:3/4] x6 | A,,6 | %12
 z2 z .B,,3 | E,6 | x6 |[M:7/8] x7 |[M:3/4] x6 |[M:5/8] x5 |] %18
V:4
 x6 | x6 | x6 | x6 | x6 | x6 | x3[K:bass] x5/2[K:treble] x/ | x6 |[M:5/8] x5 |[M:1/8] x | %10
[M:3/4] x6 | z[K:bass] C, F, E,2[K:treble] [Ec] | [=DB]>[DF] [DG]D- [DB][Dc] | z G F .E3 | x6 | %15
[M:7/8] x7 |[M:3/4] x6 |[M:5/8] x5 |] %18

